src/static/twitter icon .svg

<?xml version="1.0" encoding="UTF-8" standalone="no"?>
<svg width="20px" height="20px" viewBox="0 0 20 20" version="1.1" xmlns="http://www.w3.org/2000/svg" xmlns:xlink="http://www.w3.org/1999/xlink">
    <!-- Generator: Sketch 50.2 (55047) - http://www.bohemiancoding.com/sketch -->
    <title>Group 3</title>
    <desc>Created with Sketch.</desc>
    <defs></defs>
    <g id="Page-1" stroke="none" stroke-width="1" fill="none" fill-rule="evenodd" opacity="0.4">
        <g id="Group-4" transform="translate(-138.000000, -484.000000)" fill="#414241">
            <g id="Group-3" transform="translate(138.000000, 484.000000)">
                <path d="M16.358,3.4492 C14.7072,1.7984 12.4264,0.7786 9.9038,0.7786 C7.3808,0.7786 5.1,1.7984 3.4492,3.4492 C1.7934,5.0998 0.7732,7.3866 0.7732,9.909 C0.7732,12.426 1.7934,14.7128 3.4492,16.3634 C5.1,18.0138 7.3808,19.0394 9.9038,19.0394 C12.4264,19.0394 14.7072,18.0138 16.358,16.3634 C18.014,14.7128 19.034,12.426 19.034,9.909 C19.034,7.3866 18.014,5.0998 16.358,3.4492 Z M9.9038,0 C12.64,0 15.1132,1.113 16.9064,2.9008 C18.6996,4.694 19.8072,7.1726 19.8072,9.909 C19.8072,12.6398 18.6996,15.1186 16.9064,16.9116 C15.1132,18.6994 12.64,19.8126 9.9038,19.8126 C7.1672,19.8126 4.6942,18.6994 2.9012,16.9116 C1.1076,15.1186 0,12.6398 0,9.909 C0,7.1726 1.1076,4.694 2.9012,2.9008 C4.6942,1.113 7.1672,0 9.9038,0 Z" id="Fill-15"></path>
                <path d="M14.9118,6.7596 C14.5442,6.9188 14.1442,7.0284 13.722,7.0832 C14.155,6.8256 14.4838,6.4306 14.6378,5.948 C14.2374,6.1838 13.7878,6.3538 13.3162,6.447 C12.9428,6.0468 12.4004,5.8 11.7972,5.8 C10.6566,5.8 9.7242,6.7158 9.7242,7.8398 C9.7242,8.0044 9.7518,8.158 9.7846,8.3062 C8.0574,8.2238 6.5272,7.4122 5.5072,6.1728 C5.3318,6.48 5.2222,6.8256 5.2222,7.1984 C5.2222,7.9112 5.595,8.5364 6.1432,8.8984 C5.8034,8.8928 5.4852,8.7996 5.2058,8.646 C5.2058,8.657 5.2058,8.6626 5.2058,8.6734 C5.2058,8.9366 5.2552,9.178 5.3482,9.4082 C5.6006,10.05 6.1764,10.5324 6.873,10.6696 C6.6916,10.719 6.5162,10.7462 6.3244,10.7462 C6.1928,10.7462 6.0612,10.7298 5.9348,10.7024 C6.2038,11.514 6.9658,12.1062 7.871,12.1282 C7.1578,12.6766 6.2696,13.0002 5.299,13.0002 C5.1288,13.0002 4.97,12.989 4.8,12.9726 C5.7212,13.5486 6.8124,13.8884 7.9806,13.8884 C11.2214,13.8884 13.223,11.6456 13.7436,9.315 C13.8372,8.8984 13.8808,8.487 13.8808,8.0812 C13.8808,7.9934 13.8808,7.9004 13.8808,7.818 C14.2812,7.5274 14.6378,7.1654 14.9118,6.7596" id="Fill-50"></path>
            </g>
        </g>
    </g>
</svg>

<svg width="20" height="20" xmlns="http://www.w3.org/2000/svg"><g fill="#414241" fill-rule="evenodd" opacity=".4"><path d="M16.358 3.45A9.095 9.095 0 0 0 9.904.778a9.096 9.096 0 0 0-6.455 2.67A9.092 9.092 0 0 0 .773 9.91a9.09 9.09 0 0 0 2.676 6.454 9.102 9.102 0 0 0 6.455 2.676 9.102 9.102 0 0 0 6.454-2.676 9.088 9.088 0 0 0 2.676-6.454c0-2.522-1.02-4.81-2.676-6.46zM9.904 0a9.89 9.89 0 0 1 7.002 2.9 9.88 9.88 0 0 1 2.901 7.009c0 2.73-1.107 5.21-2.9 7.003a9.89 9.89 0 0 1-7.003 2.9 9.889 9.889 0 0 1-7.003-2.9A9.875 9.875 0 0 1 0 9.909a9.879 9.879 0 0 1 2.901-7.008A9.889 9.889 0 0 1 9.904 0z"/><path d="M14.912 6.76c-.368.159-.768.268-1.19.323.433-.257.762-.652.916-1.135-.4.236-.85.406-1.322.499a2.068 2.068 0 0 0-1.519-.647c-1.14 0-2.073.916-2.073 2.04 0 .164.028.318.06.466a5.889 5.889 0 0 1-4.277-2.133 2.06 2.06 0 0 0-.285 1.025c0 .713.373 1.338.921 1.7a2.01 2.01 0 0 1-.937-.252v.027c0 .264.05.505.142.735a2.069 2.069 0 0 0 1.525 1.262 2.04 2.04 0 0 1-.549.076c-.131 0-.263-.016-.39-.044a2.092 2.092 0 0 0 1.937 1.426A4.195 4.195 0 0 1 5.299 13c-.17 0-.329-.011-.499-.027a5.987 5.987 0 0 0 3.18.915c3.241 0 5.243-2.242 5.764-4.573a5.61 5.61 0 0 0 .137-1.234v-.263c.4-.29.757-.653 1.03-1.058"/></g></svg>
